src/16/devices/media-floppy.svg

<svg xmlns="http://www.w3.org/2000/svg" width="16" height="16"><defs><style id="current-color-scheme" type="text/css"></style></defs><path d="M2 1c-.554 0-1 .446-1 1v11l2 2h11c.554 0 1-.446 1-1V2c0-.554-.446-1-1-1H2zm1 2h10v10h-1V8H4v5H3V3zm5 6h2v4H8V9z" fill="currentColor" color="#727272"/></svg>

<svg xmlns="http://www.w3.org/2000/svg" width="16" height="16" viewBox="0 0 16 16">
 <defs>
  <style id="current-color-scheme" type="text/css">
   .ColorScheme-Text { color:#727272; } .ColorScheme-Highlight { color:#5294e2; }
  </style>
 </defs>
 <path style="fill:currentColor" class="ColorScheme-Text" d="M 2 1 C 1.446 1 1 1.446 1 2 L 1 13 L 3 15 L 14 15 C 14.554 15 15 14.554 15 14 L 15 2 C 15 1.446 14.554 1 14 1 L 2 1 z M 3 3 L 13 3 L 13 13 L 12 13 L 12 8 L 4 8 L 4 13 L 3 13 L 3 3 z M 8 9 L 10 9 L 10 13 L 8 13 L 8 9 z"/>
</svg>
